!!!COM: Corelli, Arcangelo
!!!OTL: 
!!!ONM: Opus 6, No. 7
!!!OMV: 3
!!!CDT: 1653/2/17/-1713/1/8/
!!!OCY: Italia
**kern	**kern	**kern	**kern	**kern	**kern	**kern
*clefC	*clefG	*clefG	*clefG	*clefC	*clefG	*clefG
*k[f#c#]	*k[f#c#]	*k[f#c#]	*k[f#c#]	*k[f#c#]	*k[f#c#]	*k[f#c#]
*D:	*D:	*D:	*D:	*D:	*D:	*D:
*M4/4	*M4/4	*M4/4	*M4/4	*M4/4	*M4/4	*M4/4
=1	=1	=1	=1	=1	=1	=1
8D	8f#	4ff#	4aa	8D	4ff#	4aa
8E	8g	.	.	8E	.	.
8F#	8a	4r	4r	8F#	4r	4r
8D	8f#	.	.	8D	.	.
8G	2d	4dd	4bb	8G	4dd	4bb
8A	.	.	.	8A	.	.
8B	.	4r	4r	8B	4r	4r
8G	.	.	.	8G	.	.
=2	=2	=2	=2	=2	=2	=2
8E	8g	4ee	4gg	8E	4ee	4gg
8F#	8a	.	.	8F#	.	.
8G	8b	4r	4r	8G	4r	4r
8E	8g	.	.	8E	.	.
8A	4e	4cc#	4aa	8A	4cc#	4aa
8B	.	.	.	8B	.	.
8c#	4r	4r	4r	8c#	4r	4r
8A	.	.	.	8A	.	.
=3	=3	=3	=3	=3	=3	=3
8D	8f#	4dd	4ff#	8D	4dd	4ff#
8E	8g	.	.	8E	.	.
8F#	8a	4r	4r	8F#	4r	4r
8D	8f#	.	.	8D	.	.
4G	4b	8b	8gg	4G	8b	8gg
.	.	8cc#	8aa	.	8cc#	8aa
4D	4a	8dd	8ff#	4D	8dd	8ff#
.	.	8ee	8gg	.	8ee	8gg
=4	=4	=4	=4	=4	=4	=4
4A	4a	4cc#	8ee	4A	4cc#	8ee
.	.	.	8a	.	.	8a
8r	8r	8r	4.aa	8r	8r	4.aa
8F#	8a	8aa	.	8F#	8aa	.
8G	4d	4.bb	.	8G	4.bb	.
8A	.	.	8dd	8A	.	8dd
8B	8r	.	[4gg	8B	.	[4gg
8G	8b	8b	.	8G	8b	.
=5	=5	=5	=5	=5	=5	=5
8A	4e	8cc#	8gg]	8A	8cc#	8gg]
8c#	.	8a	8aa	8c#	8a	8aa
8d	8f#	2dd	8ff#	8d	2dd	8ff#
8G	8b	.	8ee	8G	.	8ee
8A	4.a	.	4ff#	8A	.	4ff#
8G	.	.	.	8G	.	.
8A	.	4cc#	4ee	8A	4cc#	4ee
8AA	8a	.	.	8AA	.	.
=6	=6	=6	=6	=6	=6	=6
2D	2f#	2dd	2dd	2D	2dd	2dd
2r	2r	2r	2r	8d	8ff#	4aa
.	.	.	.	8c#	8ee	.
.	.	.	.	8d	8ff#	4r
.	.	.	.	8B	8dd	.
=7	=7	=7	=7	=7	=7	=7
1r	1r	1r	1r	8c#	8ee	4aa
.	.	.	.	8B	8dd	.
.	.	.	.	8c#	8ee	4r
.	.	.	.	8A	8cc#	.
.	.	.	.	8B	8dd	4aa
.	.	.	.	8A	8cc#	.
.	.	.	.	8B	8dd	4gg#
.	.	.	.	8E	8b	.
=8	=8	=8	=8	=8	=8	=8
1r	1r	1r	1r	8A	4.cc#	4.aa
.	.	.	.	8B	.	.
.	.	.	.	8c#	.	.
.	.	.	.	8A	8cc#	8ee
.	.	.	.	8d	8dd	8ff#
.	.	.	.	8e	8cc#	8ee
.	.	.	.	8f#	8b	8dd
.	.	.	.	8d	8a	8cc#
=9	=9	=9	=9	=9	=9	=9
1r	1r	1r	1r	8e	8g#	8b
.	.	.	.	8d	8ee	8ee
.	.	.	.	8c#	2aa	8.ccc#
.	.	.	.	8A	.	.
.	.	.	.	.	.	16ddd
.	.	.	.	8d	.	2bb
.	.	.	.	8B	.	.
.	.	.	.	8e	4gg#	.
.	.	.	.	8E	.	.
=10	=10	=10	=10	=10	=10	=10
2r	2r	2r	2r	2A	2aa	2aa
8D	8f#	4ff#	4aa	8D	4ff#	4aa
8E	8g	.	.	8E	.	.
8F#	8a	4r	4r	8F#	4r	4r
8D	8f#	.	.	8D	.	.
=11	=11	=11	=11	=11	=11	=11
8G	4d	4dd	4bb	8G	4dd	4bb
8A	.	.	.	8A	.	.
8B	4r	4r	4r	8B	4r	4r
8G	.	.	.	8G	.	.
8E	8g	4ee	4gg	8E	4ee	4gg
8F#	8a	.	.	8F#	.	.
8G	8b	4r	4r	8G	4r	4r
8E	8g	.	.	8E	.	.
=12	=12	=12	=12	=12	=12	=12
8A	4e	4cc#	4aa	8A	4cc#	4aa
8B	.	.	.	8B	.	.
8c#	4r	4r	4r	8c#	4r	4r
8A	.	.	.	8A	.	.
8D	8f#	4dd	4ff#	8D	4dd	4ff#
8E	8g	.	.	8E	.	.
8F#	8a	4r	4r	8F#	4r	4r
8D	8f#	.	.	8D	.	.
=13	=13	=13	=13	=13	=13	=13
4G	4b	8b	8gg	4G	8b	8gg
.	.	8cc#	8aa	.	8cc#	8aa
4D	4a	8dd	8ff#	4D	8dd	8ff#
.	.	8ee	8gg	.	8ee	8gg
4A	4a	4cc#	4ee	4A	4cc#	4ee
4r	4r	4r	4r	4r	4r	4r
=14	=14	=14	=14	=14	=14	=14
8F#	4.d	4.ff#	4.aa	8F#	4.ff#	4.aa
8G	.	.	.	8G	.	.
8A	.	.	.	8A	.	.
8F#	8d	8ff#	8aa	8F#	8ff#	8aa
8G	4.d	8b	8bb	8G	8b	8bb
8A	.	8cc#	8aa	8A	8cc#	8aa
8B	.	4dd	8gg	8B	4dd	8gg
8F#	8a	.	8ff#	8E	.	8ff#
=15	=15	=15	=15	=15	=15	=15
8G	8b	4.dd	2ee	8G	4.dd	2ee
8E	8g	.	.	8E	.	.
8A	4a	.	.	8A	.	.
8AA	.	8cc#	.	8AA	8cc#	.
2D	2f#	2dd	2dd	2D	2dd	2dd
=16	=16	=16	=16	=16	=16	=16
1r	1r	1r	1r	8d	4.ff#	4.aa
.	.	.	.	8c#	.	.
.	.	.	.	8B	.	.
.	.	.	.	8A	8aa	8ff#
.	.	.	.	8G	8b	8bb
.	.	.	.	8A	8cc#	8aa
.	.	.	.	8B	4dd	8gg
.	.	.	.	8F#	.	8ff#
=17	=17	=17	=17	=17	=17	=17
1r	1r	1r	1r	8G	4.dd	2ee
.	.	.	.	8E	.	.
.	.	.	.	8A	.	.
.	.	.	.	8AA	8cc#	.
.	.	.	.	2D	2dd	2dd
=18	=18	=18	=18	=18	=18	=18
8D	4a	4dd	4ff#	8D	4dd	4ff#
8E	.	.	.	8E	.	.
8F#	4r	4r	4r	8F#	4r	4r
8G	.	.	.	8G	.	.
8A	4a	4cc#	4ee	8A	4cc#	4ee
8B	.	.	.	8B	.	.
8c#	4r	4r	4r	8c#	4r	4r
8A#	.	.	.	8A#	.	.
=19	=19	=19	=19	=19	=19	=19
8B	4f#	4b	4dd	8B	4b	4dd
8c#	.	.	.	8c#	.	.
8d	4r	4r	4r	8d	4r	4r
8e	.	.	.	8e	.	.
4f#	4f#	4a#	4cc#	4f#	4a#	4cc#
4r	4r	4r	4r	4r	4r	4r
=20	=20	=20	=20	=20	=20	=20
8D	4f#	4.b	4.ff#	8D	4.b	4.ff#
8E	.	.	.	8E	.	.
8F#	4d	.	.	8F#	.	.
8D	.	8ff#	8bb	8D	8ff#	8bb
4E	4B	4b	4gg	4E	4b	4gg
4F#	8r	4a#	[4ff#	4F#	4a#	[4ff#
.	8f#	.	.	.	.	.
=21	=21	=21	=21	=21	=21	=21
2G	2B	4.b	4ff#]	2G	4.b	4ff#]
.	.	.	4ee	.	.	4ee
.	.	8cc#	.	.	8cc#	.
2F#	2c#	2a#	2ff#	2F#	2a#	2ff#
=22	=22	=22	=22	=22	=22	=22
1r	1r	1r	1r	8F#	4.a	4.ff#
.	.	.	.	8G#	.	.
.	.	.	.	8A#	.	.
.	.	.	.	8F#	8a	8ff#
.	.	.	.	4G#	4b	4ff#
.	.	.	.	4GG#	4b	4ee
=23	=23	=23	=23	=23	=23	=23
1r	1r	1r	1r	8A#	4.cc#	4.ee
.	.	.	.	8B	.	.
.	.	.	.	8c#	.	.
.	.	.	.	8A#	8cc#	8ee
.	.	.	.	4B	2f#	4ee
.	.	.	.	4BB	.	4dd
=24	=24	=24	=24	=24	=24	=24
1r	1r	1r	1r	8D	4.ff#	4.bb
.	.	.	.	8E	.	.
.	.	.	.	8F#	.	.
.	.	.	.	8D	8ff#	8aa
.	.	.	.	8E	4b	8gg
.	.	.	.	8F#	.	8ff#
.	.	.	.	8G	4b	8ee
.	.	.	.	8E	.	8dd
=25	=25	=25	=25	=25	=25	=25
1r	1r	1r	1r	8F#	4.b	4dd
.	.	.	.	8E	.	.
.	.	.	.	8F#	.	4cc#
.	.	.	.	8FF#	8a#	.
.	.	.	.	2BB	2b	2b
=26	=26	=26	=26	=26	=26	=26
8B	4.b	4.ff#	4.dd#	8B	4.ff#	4.dd#
8c#	.	.	.	8c#	.	.
8B	.	.	.	8B	.	.
8A	8b	8ff#	8dd#	8A	8ff#	8dd#
8G#	2b	2b	2ee	8G#	2b	2ee
8F#	.	.	.	8F#	.	.
8G#	.	.	.	8G#	.	.
8E	.	.	.	8E	.	.
=27	=27	=27	=27	=27	=27	=27
1r	1r	1r	1r	8e	4.bb	4.gg#
.	.	.	.	8f#	.	.
.	.	.	.	8e	.	.
.	.	.	.	8d	8bb	8gg#
.	.	.	.	8c#	2ee	2aa
.	.	.	.	8B	.	.
.	.	.	.	8c#	.	.
.	.	.	.	8A	.	.
=28	=28	=28	=28	=28	=28	=28
8C#	4.a	4.ee	4.aa	8C#	4.ee	4.aa
8BB	.	.	.	8BB	.	.
8C#	.	.	.	8C#	.	.
8AA	8a	8ee	8gg	8AA	8ee	8gg
8D	2a	2a	2ff#	8D	2a	2ff#
8E	.	.	.	8E	.	.
8F#	.	.	.	8F#	.	.
8D	.	.	.	8D	.	.
=29	=29	=29	=29	=29	=29	=29
1r	1r	1r	1r	8F#	4.aa	4.ddd
.	.	.	.	8E	.	.
.	.	.	.	8F#	.	.
.	.	.	.	8D	8aa	8ccc#
.	.	.	.	8G	4.dd	4.bb
.	.	.	.	8A	.	.
.	.	.	.	8B	.	.
.	.	.	.	8F#	8ff#	8aa
=30	=30	=30	=30	=30	=30	=30
1r	1r	1r	1r	8G	8b	8bb
.	.	.	.	8A	8cc#	8aa
.	.	.	.	8B	4dd	8gg
.	.	.	.	8G	.	8ff#
.	.	.	.	8A	2cc#	2ee
.	.	.	.	8B	.	.
.	.	.	.	8c#	.	.
.	.	.	.	8A	.	.
=31	=31	=31	=31	=31	=31	=31
8d	4.d	4.aa	4.ff#	8d	4.aa	4.ff#
8c#	.	.	.	8c#	.	.
8B	.	.	.	8B	.	.
8A	8d	8ff#	8aa	8A	8ff#	8aa
8G	4.d	8bb	8b	8G	8bb	8b
8A	.	8aa	8cc#	8A	8aa	8cc#
8B	.	8gg	4dd	8B	8gg	4dd
8F#	8a	8ff#	.	8F#	8ff#	.
=32	=32	=32	=32	=32	=32	=32
8G	8b	2ee	4.dd	8G	2ee	4.dd
8E	8g	.	.	8E	.	.
8A	4a	.	.	8A	.	.
8AA	.	.	8cc#	8AA	.	8cc#
2D	2f#	2dd	2dd	2D	2dd	2dd
=33	=33	=33	=33	=33	=33	=33
8d	4.d	4.a	4.f#	8d	4.a	4.f#
8c#	.	.	.	8c#	.	.
8B	.	.	.	8B	.	.
8A	8d	8f#	8a	8A	8f#	8a
8G	4.d	8b	8B	8G	8b	8B
8A	.	8a	8c#	8A	8a	8c#
8B	.	8g	4d	8B	8g	4d
8F#	8A	8f#	.	8F#	8f#	.
=34	=34	=34	=34	=34	=34	=34
8G	8B	4.e	4.d	8G	4.e	4.d
8E	8G	.	.	8E	.	.
8A	4A	.	.	8A	.	.
8AA	.	8a	8c#	8AA	8a	8c#
2D	2A	2f#	2d	2D	2f#	2d
==	==	==	==	==	==	==
*-	*-	*-	*-	*-	*-	*-
!!!RWG: This file only contains pitch and duration data.
!!!RWG: Transposing instruments are not transposed.
!!!RWG: Durations of rests and tied notes may be interpreted.
!!!RWG: Key is interpreted using the Humdrum key tool.
!!!SCA: 
!!!YOR: Chrysander Edition
!!!AGN: concerto grosso
!!!AFT: stage1
!!!ENC: F. Bennion
!!!END: 1997/04/15
!!!AST: baroque
!!!YEC: Copyright 1994, Center for Computer Assisted Research in the Humanities
!!!YEM: Rights to all derivative electronic formats reserved.
!!!YEM: Refer to licensing agreement for further details.
!!!YEN: United States of America
!!!EED: W.B. Hewlett
!!!KEY: 3327638195
!!!EMD: Converted from MuseData to Humdrum Aug 9, 1999, by Bret Aarden using muse2kern.
!!!VTS: 1988167959
